img/icons/briefcase.svg

<svg width="16" height="15" viewBox="0 0 16 15" fill="none" xmlns="http://www.w3.org/2000/svg">
<path d="M12.6667 2.61364H11.9333C11.7786 1.87621 11.3692 1.21361 10.7742 0.737514C10.1791 0.261422 9.4348 0.000950399 8.66667 0H7.33333C6.5652 0.000950399 5.82088 0.261422 5.22583 0.737514C4.63079 1.21361 4.2214 1.87621 4.06667 2.61364H3.33333C2.4496 2.61467 1.60237 2.95921 0.97748 3.57168C0.352588 4.18414 0.00105857 5.01453 0 5.88068L0 11.733C0.00105857 12.5991 0.352588 13.4295 0.97748 14.042C1.60237 14.6544 2.4496 14.999 3.33333 15H12.6667C13.5504 14.999 14.3976 14.6544 15.0225 14.042C15.6474 13.4295 15.9989 12.5991 16 11.733V5.88068C15.9989 5.01453 15.6474 4.18414 15.0225 3.57168C14.3976 2.95921 13.5504 2.61467 12.6667 2.61364ZM7.33333 1.30682H8.66667C9.07884 1.30849 9.48042 1.43494 9.81647 1.66886C10.1525 1.90279 10.4066 2.23276 10.544 2.61364H5.456C5.59339 2.23276 5.84749 1.90279 6.18353 1.66886C6.51958 1.43494 6.92116 1.30849 7.33333 1.30682ZM3.33333 3.92045H12.6667C13.1971 3.92045 13.7058 4.12698 14.0809 4.49459C14.456 4.86221 14.6667 5.3608 14.6667 5.88068V7.15909H1.33333V5.88068C1.33333 5.3608 1.54405 4.86221 1.91912 4.49459C2.29419 4.12698 2.8029 3.92045 3.33333 3.92045ZM12.6667 13.6932H3.33333C2.8029 13.6932 2.29419 13.4867 1.91912 13.119C1.54405 12.7514 1.33333 12.2528 1.33333 11.733V8.46591H7.33333V9.11932C7.33333 9.29261 7.40357 9.45881 7.5286 9.58135C7.65362 9.70389 7.82319 9.77273 8 9.77273C8.17681 9.77273 8.34638 9.70389 8.4714 9.58135C8.59643 9.45881 8.66667 9.29261 8.66667 9.11932V8.46591H14.6667V11.733C14.6667 12.2528 14.456 12.7514 14.0809 13.119C13.7058 13.4867 13.1971 13.6932 12.6667 13.6932Z" fill="white"/>
</svg>

<svg width="16" height="15" fill="none" xmlns="http://www.w3.org/2000/svg"><path d="M12.667 2.614h-.734A3.263 3.263 0 0 0 10.774.738 3.382 3.382 0 0 0 8.667 0H7.333a3.381 3.381 0 0 0-2.107.738 3.263 3.263 0 0 0-1.16 1.876h-.733a3.372 3.372 0 0 0-2.356.958A3.238 3.238 0 0 0 0 5.88v5.852c.001.866.353 1.697.977 2.309A3.372 3.372 0 0 0 3.333 15h9.334a3.372 3.372 0 0 0 2.356-.958A3.239 3.239 0 0 0 16 11.733V5.881a3.239 3.239 0 0 0-.977-2.31 3.372 3.372 0 0 0-2.356-.957ZM7.333 1.307h1.334c.412.001.813.128 1.15.362.335.234.59.564.727.945H5.456c.137-.381.391-.711.728-.945.336-.234.737-.36 1.15-.362Zm-4 2.613h9.334c.53 0 1.039.207 1.414.575.375.367.586.866.586 1.386v1.278H1.333V5.881c0-.52.211-1.019.586-1.386a2.02 2.02 0 0 1 1.414-.575Zm9.334 9.773H3.333a2.02 2.02 0 0 1-1.414-.574 1.94 1.94 0 0 1-.586-1.386V8.466h6v.653c0 .174.07.34.196.462a.674.674 0 0 0 .942 0 .647.647 0 0 0 .196-.462v-.653h6v3.267c0 .52-.211 1.018-.586 1.386a2.02 2.02 0 0 1-1.414.574Z" fill="#fff"/></svg>
